X:95
T:Romanian Tune
O:rumania
M:2/4
L:1/16
K:Ador
eeee eccc|cA^de fffe|^dddd dccc|cA^GA B4:|
|:EF^GA BBBE|cccA BBBE|cccA BBBB|cA^GA B4:|





